X:1
T: Ca' Hawkie through the Water
T: Lord Elphinston
R:Strathspey
Q: 128
K:Am
M:4/4
L:1/16
a2|ge3 e3d c3d e3a|ge3 e3d cA3 A3a|ge3 e3d c3d e3g|ea3 a3^g aA3 A2a2|
ge3 e3d c3d e3a|ge3 e3d cA3 A3a|ge3 e3d c3d e3g|ea3 a3^g aA3 A2B2|
c4 c3e d4 d3e|c4 c3e d3B G3B|c4 c3e d4 d3f|ea3 a3^g aA3 A2B2|
c4 c3e d4 d3e|c4 c3e d3B G3B|c4 c3e d4 d3f|ea3 a3^g aA3 A2c2|
GE3 E3D C3D E3A|GE3 E3D CA,3 A,3A|GE3 E3D C3D E3G|EA3 A3^G AA,3 A,2c2|
GE3 E3D C3D E3A|GE3 E3D CA,3 A,3A|GE3 E3D C3D E3G|EA3 A3^G AA,3 A,2B,2|
C4 C3E D4 D3E|C4 C3E D3B, G,3B,|C4 C3E D4 D3F|EA3 A3^G AA,3 A,2B,2|
C4 C3E D4 D3E|C4 C3E D3B, G,3B,|C4 C3E D4 D3F|EA3 A3^G AA,3 A,2||
